X:1
T:[ID 1-29a]
T:[ID 1-29a]
T:Bezeichnung standardisiert: Polonaise Polonoise
T:Urheber unbekannt Erstbeleg: 1775 (Datum in der schriftlichen Quelle) Datum in der hier transkribierten schriftlichen Quelle: 1776 - 1791
C:Urheber unbekannt
C:Erstbeleg: 1775 (Datum in der schriftlichen Quelle)
C:Datum in der hier transkribierten schriftlichen Quelle: 1776 - 1791
L:1/8
M:3/4
K:D
V:1 treble 
V:1
 dAdAdA | f a2 g fe | dAdAdA | fa a/g/f/e/ d/c/B/A/ | GbFaEg | f/e/d/c/ d2 D2 :: AEAEAE | %7
 c e2 d cB | AEAEAE | c e2 d cB/A/ | GbFaEg | f/e/d/c/ d2 D2 :| %12

